source/img/services/services-nav/design-icon-active.svg

<svg width="32" height="32" viewBox="0 0 32 32" fill="none" xmlns="http://www.w3.org/2000/svg">
<path d="M20.3051 21.3632C19.7419 20.702 18.7493 20.6226 18.0881 21.1859C17.7305 21.4905 17.5431 21.9207 17.5355 22.3561L17.9108 23.4029C18.4741 24.0641 19.4667 24.1435 20.1278 23.5802C20.789 23.017 20.8684 22.0244 20.3051 21.3632Z" fill="url(#paint0_linear)"/>
<path d="M17.6249 12.699C18.1406 12.0001 17.9921 11.0155 17.2932 10.4998C16.9152 10.2209 16.4537 10.1362 16.028 10.2278L15.0939 10.8315C14.5782 11.5304 14.7267 12.515 15.4256 13.0307C16.1245 13.5464 17.1092 13.3979 17.6249 12.699Z" fill="url(#paint1_linear)"/>
<path d="M13.6796 16.2537C14.1953 15.5548 14.0468 14.5702 13.3479 14.0545C12.9699 13.7756 12.5084 13.6909 12.0826 13.7825L11.1486 14.3861C10.6329 15.085 10.7814 16.0697 11.4803 16.5854C12.1792 17.1011 13.1639 16.9526 13.6796 16.2537Z" fill="url(#paint2_linear)"/>
<path d="M27.3576 16.8151C27.3576 22.0265 23.1329 26.6444 17.9215 26.6444C17.0041 26.6444 15.5625 26.2512 15.1693 25.858C14.5674 25.2561 16.8817 21.1003 10.8444 19.5673C10.058 19.3051 8.48535 18.3877 8.48535 16.8151C8.48535 11.6036 12.7101 7.37891 17.9215 7.37891C21.3323 7.37891 24.3204 9.18851 25.9781 11.9" stroke="#0A3D76" stroke-width="0.7" stroke-linecap="round" stroke-linejoin="round"/>
<path d="M10.4513 10.1315C10.4513 3.84076 8.09229 3.84046 8.09229 10.1315V19.5674H10.4513V10.1315Z" fill="url(#paint3_linear)"/>
<path d="M8.09229 10.1315C8.09229 3.84045 10.4513 3.84075 10.4513 10.1315V19.5674M8.09229 19.5674V21.9267L10.4513 21.9267V19.5674M8.09229 19.5674H10.4513M8.09229 19.5674V12.0971" stroke="#0A3D76" stroke-width="0.7" stroke-linecap="round"/>
<path d="M7.30571 25.4648C7.30571 22.7125 7.69888 22.3193 9.27142 22.3194L10.4511 22.3193C13.5965 25.8579 9.27157 28.2169 5.33984 27.4306C6.91253 27.4306 7.30586 26.2511 7.30571 25.4648Z" fill="url(#paint4_linear)"/>
<path d="M9.19509 27.4095C8.0825 27.8383 6.68761 27.9528 5.33984 27.6653C6.882 27.6653 7.26769 26.4316 7.26754 25.6093C7.26754 22.7306 7.65308 22.3193 9.19509 22.3195V22.3195C10.1723 22.3194 11.207 22.7163 11.5036 23.6475C11.8926 24.8688 11.3373 25.8932 10.5251 26.6217" stroke="#0A3D76" stroke-width="0.7" stroke-linecap="round" stroke-linejoin="round"/>
<path d="M16.3486 13.2765C17.2171 13.2765 17.9213 12.5724 17.9213 11.7038C17.9213 10.8352 17.2171 10.1311 16.3486 10.1311C15.48 10.1311 14.7759 10.8352 14.7759 11.7038C14.7759 12.1026 14.9244 12.4668 15.1691 12.7441" stroke="#0A3D76" stroke-width="0.7" stroke-linecap="round"/>
<path d="M20.3337 13.6838C20.5585 14.5228 21.4208 15.0206 22.2598 14.7958C22.7135 14.6743 23.0675 14.3662 23.2614 13.9763L23.3719 12.8697C23.1471 12.0307 22.2847 11.5328 21.4457 11.7576C20.6068 11.9824 20.1089 12.8448 20.3337 13.6838Z" fill="url(#paint5_linear)"/>
<path d="M22.2583 16.9579C21.4903 17.3637 21.1967 18.3151 21.6024 19.0831C21.8218 19.4984 22.2008 19.7751 22.6241 19.8773L23.7276 19.739C24.4956 19.3333 24.7893 18.3818 24.3835 17.6138C23.9778 16.8458 23.0263 16.5522 22.2583 16.9579Z" fill="url(#paint6_linear)"/>
<path d="M21.853 11.7036C20.9844 11.7036 20.2803 12.4077 20.2803 13.2763C20.2803 14.1449 20.9844 14.849 21.853 14.849C22.7215 14.849 23.4257 14.1449 23.4257 13.2763C23.4257 12.8066 23.2197 12.385 22.8932 12.0968" stroke="#0A3D76" stroke-width="0.7" stroke-linecap="round"/>
<path d="M24.6053 18.3876C24.6053 17.5191 23.9012 16.8149 23.0327 16.8149C22.1641 16.8149 21.46 17.5191 21.46 18.3876C21.46 19.2562 22.1641 19.9603 23.0327 19.9603C23.4315 19.9603 23.7957 19.8118 24.0729 19.5672" stroke="#0A3D76" stroke-width="0.7" stroke-linecap="round"/>
<path d="M19.101 23.892C18.2324 23.892 17.5283 23.1878 17.5283 22.3193C17.5283 21.4507 18.2324 20.7466 19.101 20.7466C19.9696 20.7466 20.6737 21.4507 20.6737 22.3193C20.6737 22.6057 20.5971 22.8743 20.4633 23.1056" stroke="#0A3D76" stroke-width="0.7" stroke-linecap="round"/>
<path d="M12.4169 16.8151C11.5484 16.8151 10.8442 16.1109 10.8442 15.2424C10.8442 14.3738 11.5484 13.6697 12.4169 13.6697C13.2855 13.6697 13.9896 14.3738 13.9896 15.2424C13.9896 15.5581 13.8966 15.8522 13.7364 16.0985" stroke="#0A3D76" stroke-width="0.7" stroke-linecap="round"/>
<defs>
<linearGradient id="paint0_linear" x1="18.151" y1="21.2597" x2="20.0192" y2="23.5505" gradientUnits="userSpaceOnUse">
<stop stop-color="#A62E41"/>
<stop offset="1" stop-color="#E13152"/>
</linearGradient>
<linearGradient id="paint1_linear" x1="17.2356" y1="10.5778" x2="15.4298" y2="12.9181" gradientUnits="userSpaceOnUse">
<stop stop-color="#A62E41"/>
<stop offset="1" stop-color="#E13152"/>
</linearGradient>
<linearGradient id="paint2_linear" x1="13.2903" y1="14.1325" x2="11.4845" y2="16.4728" gradientUnits="userSpaceOnUse">
<stop stop-color="#A62E41"/>
<stop offset="1" stop-color="#E13152"/>
</linearGradient>
<linearGradient id="paint3_linear" x1="10.3786" y1="12.4904" x2="8.1611" y2="12.4824" gradientUnits="userSpaceOnUse">
<stop stop-color="#A62E41"/>
<stop offset="1" stop-color="#E13152"/>
</linearGradient>
<linearGradient id="paint4_linear" x1="11.3427" y1="24.9507" x2="5.52415" y2="24.8037" gradientUnits="userSpaceOnUse">
<stop stop-color="#A62E41"/>
<stop offset="1" stop-color="#E13152"/>
</linearGradient>
<linearGradient id="paint5_linear" x1="22.2347" y1="14.7022" x2="21.5311" y2="11.8311" gradientUnits="userSpaceOnUse">
<stop stop-color="#A62E41"/>
<stop offset="1" stop-color="#E13152"/>
</linearGradient>
<linearGradient id="paint6_linear" x1="21.6881" y1="19.0378" x2="24.3309" y2="17.7134" gradientUnits="userSpaceOnUse">
<stop stop-color="#A62E41"/>
<stop offset="1" stop-color="#E13152"/>
</linearGradient>
</defs>
</svg>

<svg width="32" height="32" fill="none" xmlns="http://www.w3.org/2000/svg"><path d="M20.305 21.363a1.573 1.573 0 00-2.77.993l.376 1.047a1.573 1.573 0 102.394-2.04z" fill="url(#paint0_linear)"/><path d="M17.625 12.699a1.573 1.573 0 00-1.597-2.471l-.934.604a1.573 1.573 0 102.53 1.867z" fill="url(#paint1_linear)"/><path d="M13.68 16.254a1.573 1.573 0 00-1.597-2.472l-.934.604a1.573 1.573 0 002.53 1.868z" fill="url(#paint2_linear)"/><path d="M27.358 16.815c0 5.211-4.225 9.83-9.436 9.83-.918 0-2.36-.394-2.753-.787-.602-.602 1.713-4.758-4.325-6.29-.786-.263-2.359-1.18-2.359-2.753A9.436 9.436 0 0125.978 11.9" stroke="#0A3D76" stroke-width=".7" stroke-linecap="round" stroke-linejoin="round"/><path d="M10.451 10.132c0-6.291-2.359-6.292-2.359 0v9.435h2.36v-9.435z" fill="url(#paint3_linear)"/><path d="M8.092 10.132c0-6.292 2.36-6.291 2.36 0v9.435m-2.36 0v2.36h2.36v-2.36m-2.36 0h2.36m-2.36 0v-7.47" stroke="#0A3D76" stroke-width=".7" stroke-linecap="round"/><path d="M7.306 25.465c0-2.753.393-3.146 1.965-3.146h1.18c3.146 3.539-1.18 5.898-5.111 5.112 1.573 0 1.966-1.18 1.966-1.966z" fill="url(#paint4_linear)"/><path d="M9.195 27.41c-1.113.428-2.507.543-3.855.255 1.542 0 1.928-1.233 1.928-2.056 0-2.878.385-3.29 1.927-3.29v0c.977 0 2.012.397 2.309 1.329.389 1.22-.167 2.245-.979 2.974" stroke="#0A3D76" stroke-width=".7" stroke-linecap="round" stroke-linejoin="round"/><path d="M16.349 13.277a1.573 1.573 0 10-1.18-.533" stroke="#0A3D76" stroke-width=".7" stroke-linecap="round"/><path d="M20.334 13.684a1.573 1.573 0 002.927.292l.11-1.106a1.573 1.573 0 10-3.037.814z" fill="url(#paint5_linear)"/><path d="M22.258 16.958a1.573 1.573 0 00.366 2.92l1.104-.139a1.573 1.573 0 10-1.47-2.781z" fill="url(#paint6_linear)"/><path d="M21.853 11.704a1.573 1.573 0 101.04.393m1.712 6.291a1.573 1.573 0 10-.532 1.18m-4.972 4.324a1.573 1.573 0 111.362-.786m-8.046-6.291a1.573 1.573 0 111.32-.716" stroke="#0A3D76" stroke-width=".7" stroke-linecap="round"/><defs><linearGradient id="paint0_linear" x1="18.151" y1="21.26" x2="20.019" y2="23.55" gradientUnits="userSpaceOnUse"><stop stop-color="#A62E41"/><stop offset="1" stop-color="#E13152"/></linearGradient><linearGradient id="paint1_linear" x1="17.236" y1="10.578" x2="15.43" y2="12.918" gradientUnits="userSpaceOnUse"><stop stop-color="#A62E41"/><stop offset="1" stop-color="#E13152"/></linearGradient><linearGradient id="paint2_linear" x1="13.29" y1="14.133" x2="11.485" y2="16.473" gradientUnits="userSpaceOnUse"><stop stop-color="#A62E41"/><stop offset="1" stop-color="#E13152"/></linearGradient><linearGradient id="paint3_linear" x1="10.379" y1="12.49" x2="8.161" y2="12.482" gradientUnits="userSpaceOnUse"><stop stop-color="#A62E41"/><stop offset="1" stop-color="#E13152"/></linearGradient><linearGradient id="paint4_linear" x1="11.343" y1="24.951" x2="5.524" y2="24.804" gradientUnits="userSpaceOnUse"><stop stop-color="#A62E41"/><stop offset="1" stop-color="#E13152"/></linearGradient><linearGradient id="paint5_linear" x1="22.235" y1="14.702" x2="21.531" y2="11.831" gradientUnits="userSpaceOnUse"><stop stop-color="#A62E41"/><stop offset="1" stop-color="#E13152"/></linearGradient><linearGradient id="paint6_linear" x1="21.688" y1="19.038" x2="24.331" y2="17.713" gradientUnits="userSpaceOnUse"><stop stop-color="#A62E41"/><stop offset="1" stop-color="#E13152"/></linearGradient></defs></svg>
